icons/selection-manager-32.svg

<?xml version="1.0" encoding="UTF-8"?><svg id="icons" xmlns="http://www.w3.org/2000/svg" viewBox="0 0 32 32"><defs><style>.cls-1{fill:none;}.cls-1,.cls-2{stroke-width:0px;}.cls-2{fill-rule:evenodd;}</style></defs><path class="cls-2" d="M4,9h19v7.66418l1,.72955V3H3v24h15v-1H4V9ZM4,4h19v4H4v-4ZM31.3584,24l-12.3584-9v15.21484l3.45605-4.7373,2.64862,5.51129,3.23242-1.62598-2.54022-5.36285h5.56152ZM26.9953,28.91852l-1.44824.72852-2.93573-6.07965-2.61133,3.58008v-10.19629l8.29102,6.04883h-4.11328l2.81757,5.91852Z"/><rect class="cls-1" width="32" height="32"/></svg>

<svg xmlns="http://www.w3.org/2000/svg" viewBox="0 0 32 32"><path d="M4 9h19v7.664l1 .73V3H3v24h15v-1H4V9zm0-5h19v4H4V4zm27.358 20L19 15v15.215l3.456-4.737 2.649 5.51 3.232-1.625L25.797 24h5.561zm-4.363 4.919l-1.448.728-2.936-6.08L20 27.147V16.951L28.291 23h-4.113l2.817 5.919z" fill-rule="evenodd" stroke-width="0"/><path stroke-width="0" fill="none" d="M0 0h32v32H0z"/></svg>
